X:1
T:Title
%%score { ( 1 3 4 ) | ( 2 5 6 ) }
L:1/8
M:3/4
K:Ab
V:1 treble nm="Grand Piano"
V:3 treble 
V:4 treble 
V:2 bass 
V:5 bass 
V:6 bass 
V:1
 z2 z2 z[Q:1/4=100] c | BA z A, z A | [CA]2 [B,G]2 [Fd]2 | [Ec]4 z2 |[M:5/8] [Ec]- [Ec]3 z | %5
[M:1/8] c |[M:3/4] BA z A, z A | z E, G2 d2 | [Ec]4 z2 | [CA]6[K:bass] | [CE]4[K:treble] z2 | %11
 [CE]4 z2 | [Ec][Ec] [EB]2 [A,EA]2 | [A,DF]4 z2 | [DF]4 z2 | [DF]4 z2 | [Fd][Fd] [Ec]2 [G,DB]2 | %17
 [CE]4 z2 | [CE]4 z2 | [CE]4 z2 | [Ec][Ec] [EB]2 [_GA]2 | [Fd]4 z2 | [DF]4 z2 | [Ec]4 [DAd]2 | %24
[M:7/8] [Ae][Af]e- [Ae-][Ge]3/2[DEG]3/2 |[M:5/8] [CEA]- [CEA]3 z |] %26
V:2
 z2 z2 z E | DC z E, z C | z E, E,2 [E,,E,]2 | z E, z D DD |[M:5/8] z E, E,2 z |[M:1/8] E | %6
[M:3/4] z2 C4 | z2 [E,B,]2 [E,,E,]2 | z E, z D DD | z E, E,4 | A,,A,, A,,2 _C2 | %11
 A,,A,, A,,2 [A,,E,]2 | [A,,A,][A,,A,] G,2 C,2 | D,4 z2 | B,,B,, B,,2 D2 | B,,B,, B,,2 [B,,F,]2 | %16
 [E,G,][E,G,] [E,G,]2 [E,,E,]2 | [A,,A,]4 z2 | [A,,A,]A,, A,,2 _C2 | A,,A,, A,,2 [A,,E,]2 | %20
 [A,,A,][A,,A,] [B,,G,]2 [C,A,]2 | [D,A,]4 z2 | [D,A,]D, D,2[K:treble] F2 | A,[K:bass]A, A,2 F,2 | %24
[M:7/8] [E,C][D,B,]C CB,3/2E,3/2 |[M:5/8] A,,- A,,3 z |] %26
V:3
 x6 | z2 [CE]4 | x6 | z G, z B BE |[M:5/8] z A, A,2 z |[M:1/8] x |[M:3/4] z2 E4 | [CA]2 z2 z2 | %8
 z G, z B BE | z[K:bass] A, A,4 | A,A, A,2[K:treble] F2 | A,A, A,2 [CA]2 | x6 | x6 | B,B, B,2 =E2 | %15
 B,B, B,2 [DB]2 | x6 | x6 | z A, A,2 F2 | A,A, A,2 [CA]2 | x6 | x6 | z A, A,2 A2 | x6 | %24
[M:7/8] z2 A z z z2 |[M:5/8] x5 |] %26
V:4
 x6 | z2 z2 A,2 | x6 | z2 G,2 z2 |[M:5/8] x5 |[M:1/8] x |[M:3/4] z2 z2 A,2 | x6 | z2 G,2 z2 | %9
 x[K:bass] x5 | x4[K:treble] x2 | x6 | x6 | x6 | x6 | x6 | x6 | x6 | x6 | x6 | x6 | x6 | x6 | x6 | %24
[M:7/8] x7 |[M:5/8] x5 |] %26
V:5
 x6 | z2 z2 E,2 | D,,4 z2 | z2 E,2 [E,G,]2 |[M:5/8] A,,- A,,3 z |[M:1/8] x |[M:3/4] DC z E, z C | %7
 E,,4 z2 | z2 E,2 [E,G,]2 | A,,6 | x6 | x6 | x6 | x6 | x6 | x6 | x6 | x6 | x6 | x6 | x6 | x6 | %22
 x4[K:treble] x2 | x[K:bass] x5 |[M:7/8] z2 E,- E,2- E,/ z/ z |[M:5/8] x5 |] %26
V:6
 x6 | z2 A,,4 | x6 | E,,4 z2 |[M:5/8] x5 |[M:1/8] x |[M:3/4] z2 z2 E,2 | x6 | E,,4 z2 | x6 | x6 | %11
 x6 | x6 | x6 | x6 | x6 | x6 | x6 | x6 | x6 | x6 | x6 | x4[K:treble] x2 | x[K:bass] x5 | %24
[M:7/8] x7 |[M:5/8] x5 |] %26

